assets/images/afrikons/cart.svg

<svg viewBox="0 0 50 50" xmlns="http://www.w3.org/2000/svg"><g fill="none"><path d="m0 0h50v50h-50z"/><path d="m8.3 22.37a1.6 1.6 0 0 0 -1.6 1.63v17a1.6 1.6 0 1 0 3.2 0v-17a1.6 1.6 0 0 0 -1.6-1.63z"/><rect height="20.16" rx="1.6" width="3.2" x="23.4" y="22.37"/><path d="m16.65 22.37a1.6 1.6 0 0 0 -1.6 1.6v17a1.6 1.6 0 0 0 3.2 0v-16.97a1.6 1.6 0 0 0 -1.6-1.63z"/><path d="m41.7 22.37a1.6 1.6 0 0 0 -1.6 1.63v17a1.6 1.6 0 1 0 3.2 0v-17a1.6 1.6 0 0 0 -1.6-1.63z"/><path d="m14.07 15.42h21.86l-10.93-10.35z"/><path d="m33.35 22.37a1.6 1.6 0 0 0 -1.6 1.6v17a1.6 1.6 0 0 0 3.2 0v-16.97a1.6 1.6 0 0 0 -1.6-1.63z"/></g><path d="m44.84 15.42h-3.56l-16.28-15.42-16.28 15.42h-3.56a5 5 0 0 0 -4.92 5.48l2.69 24.69a5 5 0 0 0 4.93 4.41h34.28a5 5 0 0 0 4.93-4.41l2.69-24.69a5 5 0 0 0 -4.92-5.48zm-34.94 25.51a1.6 1.6 0 1 1 -3.2 0v-16.93a1.6 1.6 0 0 1 3.2 0zm8.35 0a1.6 1.6 0 0 1 -3.2 0v-16.93a1.6 1.6 0 0 1 3.2 0zm8.35 0a1.6 1.6 0 0 1 -1.6 1.6 1.6 1.6 0 0 1 -1.6-1.6v-16.93a1.6 1.6 0 0 1 1.6-1.6 1.6 1.6 0 0 1 1.6 1.6zm8.35 0a1.6 1.6 0 0 1 -3.2 0v-16.93a1.6 1.6 0 0 1 3.25 0zm-20.88-25.51 10.93-10.35 10.93 10.35zm29.23 25.51a1.6 1.6 0 1 1 -3.2 0v-16.93a1.6 1.6 0 1 1 3.2 0z"/></svg>

<svg xmlns="http://www.w3.org/2000/svg" viewBox="0 0 50 50"><defs><style>.cls-1{fill:none;}</style></defs><title>cart</title><g id="Layer_2" data-name="Layer 2"><g id="Layer_1-2" data-name="Layer 1"><rect class="cls-1" width="50" height="50"/><path class="cls-1" d="M8.3,22.37A1.6,1.6,0,0,0,6.7,24v17a1.6,1.6,0,1,0,3.2,0V24A1.6,1.6,0,0,0,8.3,22.37Z"/><rect class="cls-1" x="23.4" y="22.37" width="3.2" height="20.16" rx="1.6"/><path class="cls-1" d="M16.65,22.37a1.6,1.6,0,0,0-1.6,1.6v17a1.6,1.6,0,0,0,3.2,0V24A1.6,1.6,0,0,0,16.65,22.37Z"/><path class="cls-1" d="M41.7,22.37A1.6,1.6,0,0,0,40.1,24v17a1.6,1.6,0,1,0,3.2,0V24A1.6,1.6,0,0,0,41.7,22.37Z"/><polygon class="cls-1" points="14.07 15.42 35.93 15.42 25 5.07 14.07 15.42"/><path class="cls-1" d="M33.35,22.37a1.6,1.6,0,0,0-1.6,1.6v17a1.6,1.6,0,0,0,3.2,0V24A1.6,1.6,0,0,0,33.35,22.37Z"/><path d="M44.84,15.42H41.28L25,0,8.72,15.42H5.16A5,5,0,0,0,.24,20.9L2.93,45.59A5,5,0,0,0,7.86,50H42.14a5,5,0,0,0,4.93-4.41L49.76,20.9A5,5,0,0,0,44.84,15.42ZM9.9,40.93a1.6,1.6,0,1,1-3.2,0V24a1.6,1.6,0,0,1,3.2,0Zm8.35,0a1.6,1.6,0,0,1-3.2,0V24a1.6,1.6,0,0,1,3.2,0Zm8.35,0a1.6,1.6,0,0,1-1.6,1.6h0a1.6,1.6,0,0,1-1.6-1.6V24a1.6,1.6,0,0,1,1.6-1.6h0A1.6,1.6,0,0,1,26.6,24Zm8.35,0a1.6,1.6,0,0,1-3.2,0V24A1.6,1.6,0,0,1,35,24ZM14.07,15.42,25,5.07,35.93,15.42ZM43.3,40.93a1.6,1.6,0,1,1-3.2,0V24a1.6,1.6,0,1,1,3.2,0Z"/></g></g></svg>
